!!!COM: Palestrina, Giovanni Perluigi da
!!!OPR: In semidupl. maj. (II)
!!!OTL: Benedictus
**kern	**kern	**kern	**kern
*Itenor	*Itenor	*Icalto	*Icant
!Tenor 2	!Tenor 1	!Altus	!Cantus
*clefGv2	*clefGv2	*clefG2	*clefG2
*k[b-]	*k[b-]	*k[b-]	*k[b-]
*F:ion	*F:ion	*F:ion	*F:ion
*M4/2	*M4/2	*M4/2	*M4/2
=1	=1	=1	=1
0r	0r	1B-	1r
.	.	1d	1f
=2	=2	=2	=2
0r	0r	1.f	1a
.	.	.	1cc
.	.	4e	.
.	.	4d	.
=3	=3	=3	=3
0r	0r	2e	2.cc
.	.	2.f	.
.	.	.	4b-
.	.	.	4a
.	.	4e	4g
.	.	4e	[2cc
.	.	8d	.
.	.	8c	.
=4	=4	=4	=4
0r	1r	1d	2cc]
.	.	.	2b
.	1F	4c	2.cc
.	.	4B-	.
.	.	4A	.
.	.	4G	4b-
=5	=5	=5	=5
0r	1A	2F	4a
.	.	.	4g
.	.	4c	1a
.	.	4d	.
.	1c	4e	.
.	.	4c	.
.	.	[2f	4g
.	.	.	4f
=6	=6	=6	=6
1r	2.c	2f]	1g
.	.	2e	.
.	4B-	.	.
1F	4A	1f	2.a
.	4F	.	.
.	2c	.	.
.	.	.	4b-
=7	=7	=7	=7
1A	2.F	2r	1cc
.	.	2c	.
.	8E	.	.
.	8D	.	.
1c	1C	1e	2r
.	.	.	2c
=8	=8	=8	=8
2.c	2r	1g	[0g
.	2.c	.	.
4B-	.	.	.
4A	.	4c	.
4G	4B-	4d	.
[2c	2A	4e	.
.	.	4c	.
=9	=9	=9	=9
2c]	1G	1d	0g]
2B	.	.	.
2c	4C	1e	.
.	4D	.	.
2c	4E	.	.
.	4F	.	.
=10	=10	=10	=10
2B	2G	2d	2.g
2.c	2C	2e	.
.	.	.	4f
.	1C	2.g	4e
4B-	.	.	4d
2G	.	.	[2g
.	.	4f	.
=11	=11	=11	=11
1A	1c	4e	2g]
.	.	4d	.
.	.	2c	2f
2G	2B	2d	1g
2C	[2c	[2e	.
=12	=12	=12	=12
2c	4c]	2e]	1g
.	4B-	.	.
2B	2G	2.d	.
1c	1A	.	2e
.	.	4c	.
.	.	[2c	2f
=13	=13	=13	=13
1d	1G	2c]	0g
.	.	2B	.
[1c	[1C	2c	.
.	.	2e	.
=14	=14	=14	=14
0c]	0C]	2e	2r
.	.	2c	2e
.	.	2.e	2e
.	.	.	2c
.	.	4f	.
=15	=15	=15	=15
0r	1r	2g	2.e
.	.	4c	.
.	.	4d	4f
.	2r	4e	2g
.	.	4c	.
.	2A	2f	4a
.	.	.	4g
=16	=16	=16	=16
0r	2A	2e	4a
.	.	.	4b-
.	2F	2.a	2.cc
.	1A	.	.
.	.	4g	4b-
.	.	2f	2a
=17	=17	=17	=17
0r	2c	2e	2g
.	2d	1f	2f
.	2.c	.	1g
.	.	2e	.
.	4B-	.	.
=18	=18	=18	=18
2r	4A	1c	0f
.	4G	.	.
2A	4F	.	.
.	4E	.	.
2A	1D	1d	.
2F	.	.	.
=19	=19	=19	=19
1A	2.F	1c	2r
.	.	.	2a
.	4G	.	.
2c	2A	1r	2a
2d	2B-	.	2f
=20	=20	=20	=20
1c	2F	1r	2a
.	2A	.	1cc
1d	[1G	2r	.
.	.	2d	4b-
.	.	.	4a
=21	=21	=21	=21
1r	1G]	2d	4b-
.	.	.	4a
.	.	2B-	2g
2r	1r	1d	4f
.	.	.	4e
2d	.	.	4f
.	.	.	4g
=22	=22	=22	=22
2d	0r	2f	2a
2B-	.	2.g	2b-
1d	.	.	2.a
.	.	4f	.
.	.	2f	.
.	.	.	8g
.	.	.	8f
=23	=23	=23	=23
2c	0r	2e	1g
2B-	.	1d	.
1A	.	.	2f
.	.	2c	2e
=24	=24	=24	=24
0D	0r	2d	2d
.	.	2f	2a
.	.	2f	2a
.	.	2d	2f
=25	=25	=25	=25
2r	2r	0f	1a
2F	2A	.	.
2F	2A	.	2cc
2D	2F	.	2dd
=26	=26	=26	=26
2.F	2.A	2r	2.cc
.	.	2f	.
4G	4B-	.	4b-
2A	2c	2e	4a
.	.	.	4g
2B-	[2d	2d	2f
=27	=27	=27	=27
1F	4d]	1f	1a
.	4c	.	.
.	1c	.	.
2.G	.	2d	2.g
.	2B	2d	.
4G	.	.	4g
=28	=28	=28	=28
[0C	[0c	[0e	[0g
=29	=29	=29	=29
0C]	0c]	0e]	0g]
*-	*-	*-	*-
!! B.Hosanna
**kern	**kern	**kern	**kern	**kern
*Ibass	*Itenor	*Itenor	*Icalto	*Icant
!Bassus	!Tenor 2	!Tenor 1	!Altus	!Cantus
*clefF4	*clefGv2	*clefGv2	*clefG2	*clefG2
*k[b-]	*k[b-]	*k[b-]	*k[b-]	*k[b-]
*F:ion	*F:ion	*F:ion	*F:ion	*F:ion
*M4/2	*M4/2	*M4/2	*M4/2	*M4/2
=30	=30	=30	=30	=30
0r	0r	0r	1c	0r
.	.	.	2c	.
.	.	.	2d	.
=31	=31	=31	=31	=31
0r	0r	0r	2.c	1g
.	.	.	4d	.
.	.	.	2e	2g
.	.	.	2f	2a
=32	=32	=32	=32	=32
0r	1c	0r	4e	2.g
.	.	.	4d	.
.	.	.	4e	.
.	.	.	4f	4f
.	2c	.	2g	2e
.	2d	.	[2f	2f
=33	=33	=33	=33	=33
0r	2.c	0r	2f]	2a
.	.	.	2e	2.g
.	4B-	.	.	.
.	2A	.	2c	.
.	.	.	.	4f
.	2B-	.	[2d	[2f
=34	=34	=34	=34	=34
0r	1G	1r	2d]	2f]
.	.	.	4c	2e
.	.	.	4B-	.
.	2.F	1c	1A	[1f
.	4G	.	.	.
=35	=35	=35	=35	=35
1r	2A	2c	0r	0f]
.	2B-	2d	.	.
1F	2.A	2.c	.	.
.	4B-	4B-	.	.
=36	=36	=36	=36	=36
2F	2c	2A	1r	0r
2G	1B-	2B-	.	.
2.F	.	2d	1f	.
.	2A	[2c	.	.
4E-	.	.	.	.
=37	=37	=37	=37	=37
2D	1B-	4c]	2f	0r
.	.	4B-	.	.
2E-	.	1B-	2g	.
1C	1c	.	2.e-	.
.	.	2A	.	.
.	.	.	4c	.
=38	=38	=38	=38	=38
1BB-	1F	2.B-	4d	1r
.	.	.	4e	.
.	.	.	2.f	.
.	.	4A	.	.
2.C	[1c	1G	.	1cc
.	.	.	8e	.
.	.	.	8d	.
.	.	.	2e	.
4BB-	.	.	.	.
=39	=39	=39	=39	=39
2AA	2c]	1F	1f	2cc
2BB-	2B-	.	.	2dd
1FF	1A	2r	2r	2.cc
.	.	2c	2f	.
.	.	.	.	4b-
=40	=40	=40	=40	=40
1r	0r	2c	2e	2a
.	.	2d	2f	2b-
2r	.	2.c	2.e	2a
2C	.	.	.	[2g
.	.	4B-	4d	.
=41	=41	=41	=41	=41
2C	1r	2A	2c	2g]
2D	.	2B-	2F	1f
2.C	2r	2A	1c	.
.	2c	[2G	.	2e
4BB-	.	.	.	.
=42	=42	=42	=42	=42
2AA	2c	4G]	1F	1f
.	.	4F	.	.
2BB-	2d	1F	.	.
1GG	2B-	.	1r	1g
.	2B-	2E	.	.
=43	=43	=43	=43	=43
0FF	2.A	1F	2r	1a
.	.	.	2c	.
.	4G	.	.	.
.	4F	1r	2A	2r
.	4G	.	.	.
.	4A	.	2F	2f
.	4F	.	.	.
=44	=44	=44	=44	=44
0r	2G	2r	2B-	2d
.	2A	2F	2c	2c
.	1r	2D	2d	2f
.	.	2C	2e	2g
=45	=45	=45	=45	=45
0r	0r	2F	2f	2a
.	.	2G	4e	1b-
.	.	.	4d	.
.	.	4A	4c	.
.	.	4B-	4d	.
.	.	4c	4e	[2a
.	.	4A	4c	.
=46	=46	=46	=46	=46
0r	1r	2B-	2d	2a]
.	.	2c	2e	2g
.	2r	2.F	[1f	1a
.	2F	.	.	.
.	.	4G	.	.
=47	=47	=47	=47	=47
0r	2D	4A	2f]	1r
.	.	4B-	.	.
.	2C	1c	2e	.
.	2F	.	1d	2r
.	2G	2B	.	2g
=48	=48	=48	=48	=48
2r	2A	1c	0c	2e
2C	2.c	.	.	2c
2AA	.	2r	.	2e
.	4B-	.	.	.
2FF	4A	2F	.	[2f
.	4G	.	.	.
=49	=49	=49	=49	=49
2BB-	2F	2D	2r	4f]
.	.	.	.	4d
2C	2E	2C	2c	2g
2D	2r	2F	2A	2f
2E	2c	2G	2G	4e
.	.	.	.	4d
=50	=50	=50	=50	=50
0F	2A	2A	4c	2c
.	.	.	4B-	.
.	2F	2.c	4A	4f
.	.	.	4G	4g
.	2c	.	2F	4a
.	.	4B-	.	4g
.	2c	2A	[2f	4a
.	.	.	.	4b-
=51	=51	=51	=51	=51
1C	1c	1G	2f]	1cc
.	.	.	2e	.
[1FF	[1c	[1F	[1f	[1a
=52	=52	=52	=52	=52
1FF_	1c_	1F_	1f_	1a_
1FF_	1c_	1F_	1f_	1a_
=53	=53	=53	=53	=53
1FF]	1c]	1F]	1f]	1a]
==	==	==	==	==
*-	*-	*-	*-	*-
!!!CDT: 1525/^1526/-1594/2/2
!!!OCY: Italia
!!!AGN: Mass (Paraphrase)
!!!AST: renaissance, vocal
!!!ASW: Gregorian Mass
!!!PWK: Masses, Book Mantuan II
!!!RNB: Cadence finals: C
!!!YOR: Le Opere Complete, v. 19, p. 87
!!!YOO: Rome, Italy: Fratelli Scalera
!!!END: 1992//
!!!EED: John Miller
!!!YEC: Copyright 2000, John Miller
!!!YEN: United States of America
!!!YEM: Rights to all derivative electronic formats reserved.
!!!YEM: Refer to licensing agreement for further details.
!!!YEM: This file must be accompanied by the licensing agreement.
!!!YEM: A copy of the licensing agreement may be found at http://www.music-cog.ohio-state.edu/HumdrumDatabases/Palestrina/license.txt
!!!EMD: converted to Humdrum by Bret Aarden
